!!!!SEGMENT: pl-kj--bj-muz-10206-iii-2_zarebski-juliusz--gavotte-op-29-no-2.krn
!!!cenid: 18xx:3547
!!!COM: Zarębski, Juliusz
!!!COM-rismID: pe30020631
!!!CDT: 1854/02/28-1885/09/15
!!!CNT:
!!!OTL: Gavotte op. 29 no. 2
!!!PDT:
!!!AGN:
!!!SMS-siglum: PL-Kj
!!!SMS-shelfmark: BJ Muz. 10206 III 2
!!!SMS-shelfwork: W
!!!SMS-variant:
!!!SMS-altvar:
!!!NIFC-rismSourceID:
!!!NIFC-rismChildID:
!!!NIFC-islandoraID: none
!!!URL-pdf-islandora:
!!!URL-scan: https://polona.pl/item/quatre-morceaux-pour-piano-op-29-no-2-gavotte,MTA5ODIzMzE3/4 @EN{Scan on Polona} @PL{Skany w portalu Polona}
!!!ONB-nifc:
!!!AIN: 1 piano
!!!key:
!!!OMD:
!!!OMD-mod: Allegro molto
**kern	**kern	**fing	**dynam
*part1	*part1	*	*part1
*staff2	*staff1	*	*
*Ipiano	*Ipiano	*	*
*I"Piano.	*I"Piano.	*	*
*mI"Pianoforte	*mI"Pianoforte	*	*
*'pf	*I'pf	*	*
*	*ICklav	*	*
*clefF4	*clefG2	*	*
*k[f#c#]	*k[f#c#]	*	*
*b:	*b:	*	*
*M2/2	*M2/2	*	*
*met(c|)	*met(c|)	*	*
=1	=1	=1	=1
!	!LO:TX:a:B:t=Allegro molto.:mod=	!	!
4BB'/	4b/ 4f#/ 4d'/	.	p
4B'\	4b/ 4f#/ 4d'/	.	.
4BB'/	(8cc#/L 8g/ 8e/	.	.
.	8a/	.	.
4B'\	8f#/	.	.
.	8g/J	.	.
=2	=2	=2	=2
4BB'/	8e/L	.	.
.	8f#/	.	.
4B'\	8d/	.	.
.	8e/J)	.	.
4BB'/	4f#/ 4d'/	.	.
4B'\	4dd/ 4f#'/	.	.
=3	=3	=3	=3
4AA'/	4f#/ 4d'/	.	.
4A'\	4cc#/ 4f#'/	.	.
4GGn'/	4f#/ 4d'/	.	.
4Gn'\	4b/ 4f#'/	.	.
=4	=4	=4	=4
4CC#'/	8g#X/L 8e#X/ 8B/	.	.
.	8a#X/	.	.
4C#'/	8f#/	.	.
.	8g#/J	.	.
4FF#'/	4a#/ 4f#/ 4c#'/	.	.
4F#'\	4f#/ 4c#/ 4A#X'/	.	.
!!LO:LB:g=original
=5	=5	=5	=5
4EE'/	4f#/ 4c#/ 4A#X'/	.	.
4E'\	4f#/ 4c#/ 4A#'/	.	.
4DD'/	(8f#/L 8B^>/	.	.
.	8b/	.	.
4D'\	8f#/	.	.
.	8an/J)	.	.
=6	=6	=6	=6
4CC#'/	8f#/L 8B^>/	.	.
.	8a/	.	.
4C#'/	8e/	.	.
.	8g/J	.	.
4D/ 4DD'/	8g/L 8B^>/	.	.
.	8f#/	.	.
4G/ 4GG'/	8c#/ 8B/	.	.
.	8d/J	.	.
=7	=7	=7	=7
*	*^	*	*
4D/ 4DD'/	8f#/L 8B^/	4ryyyy	.	.
.	8e/	.	.	.
4G/ 4GG'/	8d/	[4B\	.	.
.	[8c#/J	.	.	.
4E/ 4EE'/	(8c#/]L 8B/]	2ryyyy	.	<
.	8d/	.	.	.
4G/ 4GG'/	8c#/ 8B/	.	.	.
.	8d/J	.	.	.
*	*v	*v	*	*
=8	=8	=8	=8
4E#X/ 4EE#X'/	8c#/L 8B/	.	.
.	8d/	.	.
4G#X/ 4GG#X'/	8c#/ 8B/	.	.
.	8d/J	.	.
!	!	!	!LO:MO:null:mod=[
4F#/ 4FF#'/	8c#/L 8A#X'/)	.	.
!	!	!	!LO:MO:mod=p
.	8f#/	.	[ p
4r	8g#X/	.	.
.	8a#X/J	.	.
=9	=9	=9	=9
4BB'/	4b/ 4f#/ 4d'/	.	.
4B'\	4b/ 4f#/ 4d'/	.	.
4AA'/	(8cc#/L 8g/ 8e/	.	.
.	8a/	.	.
4A'\	8f#/	.	.
.	8g/J	.	.
!!LO:LB:g=original
=10	=10	=10	=10
4GG'/	8e/L	.	.
.	8f#/	.	.
4G'\	8d/	.	.
.	8e/J)	.	.
4FF#'/	4a/ 4d'/	.	.
4F#'\	4dd/ 4a/ 4d'/	.	.
=11	=11	=11	=11
4GG'/	4cc#/ 4a/ 4d'/	.	.
4G'\	4b/ 4g/ 4d'/	.	.
4CC#'/	8a/L 8f#/ 8B/	.	.
.	8b/ 8g/	.	.
4C#'/	8a/ 8f#/	.	.
.	8g/J 8e/	.	.
=12	=12	=12	=12
4DD'/	8f#/L 8d/	4 2	<
.	8g/ 8e/	3 1	.
4d'\	8a/ 8f#/	4 2	.
.	8b/J 8g/	3 1	.
4A'\	8cc#\L 8a\	4 2	.
.	8dd\ 8b\	3 1	.
4F#'\	8ee\ 8cc#\	4 2	.
.	8ff#\J 8dd\	3 1	[[
=13	=13	=13	=13
4FF#'/	4aa\ 4dd\ 4a'\	.	.
4f#'\	4aa\ 4dd\ 4a'\	.	.
4d'\	(8cc#\L 8a\	.	.
.	8dd\	.	.
4A'\	8cc#\	.	.
.	8dd\J)	.	.
=14	=14	=14	=14
4GG'/	4ff#\ 4b'\	.	.
4g'\	4ff#\ 4b'\	.	.
4e'\	(8cc#\L 8b\	.	.
.	8dd\	.	.
4B'\	8cc#\ 8b\	.	.
.	8dd\J)	.	.
!!LO:LB:g=original
=15	=15	=15	=15
4AA'/	(8ff#\L 8b\	.	.
.	8ee\	.	.
4g'\	8cc#\ 8b\	.	.
.	8dd\J	.	.
4e'\	8cc#\L 8b\	.	.
.	8dd\	.	.
4A'\	8b\ 8g\	.	.
.	8cc#\J)	.	.
=16	=16	=16	=16
8d'\	(8dd/L 8f#/	.	.
8r	8e/	.	.
4r	8d/	.	.
.	8A/J)	.	.
8DD'/	8r	.	.
8r	8d/L	.	.
4r	8a/ 8f#/	.	.
.	8b/J 8g/	.	.
!!LO:MO:ori
=17||	=17||	=17||	=17||
!!LO:MO:end
!!LO:MO:mod
!! =17	=17	=17	=17
!!LO:MO:end
4D/ 4DD'/	4ccn\ 4a'\	.	.
4e\ 4G'\	4cc\ 4a'\	.	.
2d\ 2F#\	(8cc\L 8a\	.	.
.	8dd\ 8b\	.	.
.	8cc\ 8a\	.	.
.	8dd\J 8b\	.	.
=18	=18	=18	=18
4D/ 4DD'/	8ee\L 8ccn\	.	.
.	8dd\ 8b\	.	.
4e\ 4G'\	8cc\ 8a\	.	.
.	8dd\J 8b\)	.	.
!	!LO:SIC:s=4ee'\ 4cc\:v	!	!
2d\ 2F#\	4ee\ 4cc\	.	<
.	[4aa\ [4cc\ [4a^\	.	.
=19	=19	=19	=19
4D/ 4DD/	4aa\] 4cc\] 4a\]	.	.
(4d\ 4F#\	4cccn\ 4ee^\	.	.
4e\ 4G\	(8bb\L 8dd\	.	.
.	8ccc\J 8ee\	.	.
[4f#\ [4A\)	4aa\ 4ccn\)	.	[[
!!LO:LB:g=original
=20	=20	=20	=20
4f#\] 4A\]	(8aa\L 8ccn\	.	>
.	8bb\J 8dd\	.	.
(8g\L 8B\	2gg\ 2b\)	.	.
8d\J	.	.	.
8B\L	.	.	.
8G\	.	.	.
8D\	(8dd\L 8b\	.	.
!	!	!	!LO:MO:null:mod=]
8BB\J)	8ee\J 8cc\	.	]]
=21	=21	=21	=21
4GG/	4ffn\ 4dd'\)	.	.
4a\ 4cn'\	4ff\ 4dd'\	.	.
2g\ 2B\	(8ff\L 8dd\	.	.
.	8gg\ 8ee\	.	.
.	8ff\ 8dd\	.	.
.	8gg\J 8ee\	.	.
=22	=22	=22	=22
4GG/	8aa\L 8ffn\	.	.
.	8gg\ 8ee\	.	.
4a\ 4cn'\	8ff\ 8dd\	.	.
.	8gg\J 8ee\)	.	.
2g\ 2B\	4aa\ 4ff'\	.	.
.	[4ddd\ [4ff\ [4dd^\	.	.
=23	=23	=23	=23
4GG/	4ddd\] 4ff\] 4dd\]	.	<
*clefG2	*	*	*
!	!LO:SIC:s=4fffn^\ 4aa\:v	!	!
(4g/ 4B/	4fffn\ 4aa\	.	.
4a/ 4cn/	(8eee\L 8gg\	.	.
.	8fff\J 8aa\	.	.
[4b/ [4d/)	4ddd\ 4ffn\)	.	[[
=24	=24	=24	=24
*^	*	*	*
4b/] 4d/]	4ryyyy	(8ddd\L 8ffn\	.	>
.	.	8eee\J 8gg\	.	.
(4ccn/ 4e/	8e\L	2cccn\ 2ee\)	.	.
.	8g\J	.	.	.
*clefF4	*	*	*	*
8e\L	2ryy	.	.	.
8cn\	.	.	.	.
8G\	.	4r	.	]]
8E\J)	.	.	.	.
*v	*v	*	*	*
!!LO:PB:g=original
=25	=25	=25	=25
4BB-X/ 4BBB-X'/	4cn/ 4E'/	.	p
4AA/ 4AAA'/	4c/ 4E'/	.	.
4GG/ 4GGG'/	(8c/L 8E/	.	.
.	8d/ 8G/	.	.
!	!LO:SIC:s=8e/ 8c/:v	!	!
4AA/ 4AAA'/	8e/ 8cn/	.	.
.	8fn/J 8d/	.	.
=26	=26	=26	=26
4BB-X/ 4BBB-X'/	8g/L 8e/	.	.
.	8fn/ 8d/	.	.
4AA/ 4AAA'/	8e/ 8cn/	.	.
.	8f/J 8d/)	.	.
4GG/ 4GGG'/	4g/ 4e'/	.	.
4AA/ 4AAA'/	4ccn/ 4e/ 4c'/	.	.
=27	=27	=27	=27
4BB-X/ 4BBB-X'/	4ccn/ 4e'/	.	<
4AA/ 4AAA'/	4cc/ 4e'/	.	.
!	!	!	!LO:MO:null:mod=.
4GG/ 4GGG'/	(8cc\L 8e\	.	<
.	8dd\ 8g\	.	.
4AA/ 4AAA'/	8ee\ 8cc\	.	.
.	8ffn\J 8dd\	.	.
=28	=28	=28	=28
4BB-X/ 4BBB-X'/	8gg\L 8ee\	.	.
.	8ffn\ 8dd\	.	.
4AA/ 4AAA'/	8ee\ 8ccn\	.	.
.	8ff\J 8dd\)	.	.
4GG/ 4GGG'/	4gg\ 4ee'\	.	.
4AA/ 4AAA'/	4cccn\ 4ee\ 4cc'\	.	[[
=29	=29	=29	=29
4FFn/ 4FFFn/	4fffn\ 4aa\ 4ffn\	.	f
4cn\ 4A\ 4Fn\	4ccn/ 4a/ 4fn/	.	.
(8d\L 8B-X\ 8F^\	(8dd\L 8b-X\ 8f^\	.	.
8e\	8ee\	.	.
8c\	8cc\	.	.
8d\J	8dd\J	.	.
!!LO:LB:g=original
=30	=30	=30	=30
8B-X\L	8b-X\L	.	.
8cn\	8ccn\	.	.
8A\	8a\	.	.
!	!LO:SIC:s=8b-^\J):v	!	!
8B-^\J)	8b-\J)	.	.
4G'\	4g'/	.	.
4B-\ 4BB-X'\	4cc/ 4g/ 4e'/	.	.
=31	=31	=31	=31
!	!	!	!LO:MO:null:mod=>
(4A\ 4AA^\	(4ccn/ 4fn/ 4d^/	.	.
!	!	!	!LO:MO:null:mod=.
4G/ 4GG/	8b-X/L	.	>
.	8a/J	.	.
4Fn/ 4FFn'/)	4b-/ 4g/ 4d'/)	.	.
!	!LO:SIC:s=4cc/ 4g/ 4cn'/:v	!	!
4E/ 4EE'/	4ccn/ 4g/ 4cn'/	.	.
=32	=32	=32	=32
4D/ 4DD'/	(8a/L 8fn/ 8cn/	.	.
.	8g/	.	.
4Cn/ 4CCn'/	8e/	.	.
.	8f/J)	.	.
4BBn/ 4BBBn'/	4d'/	.	.
!	!	!	!LO:MO:null:mod=]
4GG/ 4GGG'/	4g/ 4d/ 4Bn'/	.	]]
=33	=33	=33	=33
4CCn'/	4g/ 4e/ 4cn'/	.	p
4Cn'/	4g/ 4e/ 4c'/	.	.
4AAA'/	(8a/L 8e/ 8c^/	.	.
.	8fn/	.	.
4AA'/	8d/	.	.
.	8e/J)	.	.
=34	=34	=34	=34
4DD'/	(8fn/L 8d/ 8A^/	.	.
.	8e/	.	.
4D'/	8cn/	.	.
.	8d/J)	.	.
4GGG'/	4B-X'/	.	.
4GG'/	4g/ 4d/ 4B-'/	.	.
!!LO:LB:g=original
=35	=35	=35	=35
4Cn'/	(8ee\L 8ccn\ 8g^\	.	.
.	8dd\	.	.
4cn'\	8b-X\	.	.
.	8cc\J)	.	.
4FFn'/	4a'/	.	.
4Fn'\	4ffn\ 4cc\ 4a'\	.	.
=36	=36	=36	=36
4B-X'\	(8ddd\L 8bb-X\ 8ffn\	.	pp
.	8cccn\	.	.
4b-X'\	8aa\	.	.
.	8bb-\J)	.	.
4E-X'\	4gg'\	.	.
4e-X'\	4eee-X\ 4bb-\ 4gg'\	.	.
=37	=37	=37	=37
4AA'/	(8cc#X/L 8a/ 8en/	.	.
.	8b-X/	.	.
4A'\	8g/	.	.
.	8a/J)	.	.
4DD'/	4fn'/	.	.
4D'\	4dd/ 4a/ 4f'/	.	.
=38	=38	=38	=38
4A'\	(8ccc#X\L 8aa\ 8ee\	.	.
.	8bb-X\	.	.
4a'\	8gg\	.	.
.	8aa\J)	.	.
4D'\	4ffn'\	.	.
4d'\	4ddd\ 4aa\ 4ff'\	.	.
=39	=39	=39	=39
(8A\L	4cc#X/ 4a/ 4e/	.	<
8B-X\	.	.	.
8G\	4r	.	.
!	!	!	!LO:MO:null:mod=[
8A\J	.	.	.
!	!	!	!LO:MO:null:mod=>
8Fn\L	(8dd/L 8a^>/	.	[ >
8G\	8b-X/	.	.
8E\	8g/	.	.
!	!	!	!LO:MO:null:mod=]
8F\J	8a/J	.	]]
!!LO:LB:g=original
=40	=40	=40	=40
8D\L	8fn/L	.	.
8E\	8g/	.	.
8Cn\	8e/	.	.
8D\J	8f/J	.	.
8BB-X/L	8d/L	.	.
8C/	8e/	.	.
8AA/	8cn/	.	.
8BB-/J)	8d/J)	.	.
=41	=41	=41	=41
4r	(8cn/L	.	<
.	8d/	.	.
4A/: 4Cn/: 4FFn':/	8fn/	.	.
.	8ffn/J 8ccn/	.	.
4r	8dd/L	.	.
.	8b-X/	.	.
4B-X\ 4D\ 4BB-X'\	8f/	.	.
.	8d/J)	.	.
=42	=42	=42	=42
4r	(8cn/L	.	.
.	8d/	.	.
4A/: 4Cn/: 4FFn':/	8fn/	.	.
.	8ffn/J 8ccn/	.	.
4r	8dd/L	.	.
.	8b-X/	.	.
4B-X\ 4D\ 4BB-X'\	8f/	.	.
.	8d/J)	.	.
=43	=43	=43	=43
4r	(8cn/L	.	.
.	8d/	.	.
4A/: 4Cn/: 4FFn':/	8e/	.	.
.	8ee/J 8a/	.	.
4r	8dd/L	.	.
.	8b-X/	.	.
4B-X\ 4D\ 4BB-X'\	8fn/	.	.
.	8d/J)	.	.
!!LO:LB:g=original
=44	=44	=44	=44
4r	(8cn/L	.	.
.	8d/	.	.
4A\: 4Cn\: 4FFn':\	8e/	.	.
.	8ee/J 8a/	.	.
4r	8dd/L	.	.
.	8b-X/	.	.
4B-X\ 4D\ 4BB-X'\	8fn/	.	.
.	8d/J)	.	[[
=45	=45	=45	=45
4r	(8c#X/L	.	>
.	8d/	.	.
4B-X\: 4C#X\: 4FFn':\	8e/	.	.
.	8ee/J 8b-X/	.	.
4r	8dd/L	.	.
.	8b-/	.	.
4B-\ 4D\ 4BB-X'\	8fn/	.	.
.	8d/J)	.	.
=46	=46	=46	=46
4r	(8c#X/L	.	.
.	8d/	.	.
4B-X\ 4C#X\ 4FFn'\	8e/	.	.
.	8ee/J 8b-X/	.	.
4r	8dd/L	.	.
.	8b-/	.	.
4B-\ 4D\ 4BB-X'\	8fn/	.	.
.	8d/J)	.	.
=47	=47	=47	=47
4r	(8c#X/L	.	.
.	8d/	.	.
4B-X\ 4C#X\ 4FFn'\	8e/	.	.
.	8ee/J 8b-X/	.	.
2r	8dd/L	.	.
.	8b-/	.	.
.	8fn/	.	.
.	8d/J)	.	.
!!LO:PB:g=original
=48	=48	=48	=48
4r	(8c#/L	.	.
.	8d/	.	.
!LO:SIC:s=4A#X'/ 4C#X/ 4FF#X/:v	!	!	!
4A#X/ 4C#X/ 4FF#X/	8e/	.	.
.	8ee/J 8a#X/	.	.
2r	8dd/L	.	.
.	8cc#/	.	.
.	8a#/	.	.
.	8e/J)	.	]]
=49	=49	=49	=49
4BB'/	4b/ 4f#/ 4d'/	.	.
4B'\	4b/ 4f#/ 4d'/	.	.
4BB'/	(8cc#/L 8g/ 8e/	.	.
.	8an/	.	.
4B'\	8f#/	.	.
.	8g/J	.	.
=50	=50	=50	=50
4BB'/	8e/L	.	.
.	8f#/	.	.
4B'\	8d/	.	.
.	8e/J)	.	.
4BB'/	4f#/ 4d'/	.	.
4B'\	4dd/ 4f#'/	.	.
=51	=51	=51	=51
4AA'/	4f#/ 4d'/	.	.
4A'\	4cc#/ 4f#'/	.	.
4GGn'/	4f#/ 4d'/	.	.
4Gn'\	4b/ 4f#'/	.	.
=52	=52	=52	=52
4CC#'/	(8g#X/L 8e#X/ 8B/	.	.
.	8a#X/	.	.
4C#'/	8f#/	.	.
.	8g#/J)	.	.
4FF#'/	4a#/ 4f#/ 4c#'/	.	.
4F#'\	4f#/ 4c#/ 4A#X'/	.	.
!!LO:LB:g=original
=53	=53	=53	=53
4EE'/	4f#/ 4c#/ 4A#X'/	.	.
4E'\	4f#/ 4c#/ 4A#'/	.	.
4DD'/	(8f#/L 8B^>/	.	.
.	8b/	.	.
4D'\	8f#/	.	.
.	8an/J)	.	.
=54	=54	=54	=54
4CC#'/	(8f#/L 8B^>/	.	.
.	8a/	.	.
4C#'/	8e/	.	.
.	8g/J)	.	.
4BBB'/	(8d/L 8G/	.	>
.	8g/	.	.
4BB'/	8d/	.	.
.	8f#/J)	.	.
=55	=55	=55	=55
4AAA#X'/	8c#/L 8G/	.	.
.	8f#/	.	.
4AA#X'/	8c#/	.	.
.	8e/J	.	.
4AAAn'/	8B/L 8F#/	.	.
.	8e/	.	.
4AAn'/	8B/	.	.
.	8d/J	.	.
=56	=56	=56	=56
!	!LO:MO:mod=*clefF4:null	!	!
*	*null	*	*
4GGG#X'\	8B</L 8Fn</	.	.
.	8e</	.	.
4GG#X'\	8B</	.	.
.	8d</J	.	.
4GGn\ 4GGGn'\	8A#X</L 8E</	.	.
.	8d</	.	.
4FF#\ 4FFF#'\	8A#</	.	.
!	!	!	!LO:MO:null:mod=]
.	8c#</J	.	]]
!!LO:LB:g=original
=57	=57	=57	=57
*^	*	*	*
4ryyyy	4BB\ 4BBB\	4B</ 4F#</ 4D<'/	.	pp
4r	4ryy	4B</ 4F#</ 4D<'/	.	.
8G\L	2r	[2c#</ [<2E<^/	.	.
8A\	.	.	.	.
8F#\	.	.	.	.
[8G\J	.	.	.	.
=58	=58	=58	=58	=58
1G\]	(8BB\L	1c#</] 1E</]	.	.
.	8C#\	.	.	.
.	8AA\	.	.	.
.	8BB\J	.	.	.
.	8GG\L	.	.	.
.	8AA\	.	.	.
.	8FF#\	.	.	.
.	8GG\J)	.	.	.
=59	=59	=59	=59	=59
2ryy	1r	4B</ 4F#</ 4D<'/	.	.
.	.	4B</ 4F#</ 4D<'/	.	.
8G\L	.	[2c#</ [2E<^/	.	.
8A\	.	.	.	.
8F#\	.	.	.	.
[8G\J	.	.	.	.
=60	=60	=60	=60	=60
1G\]	(8BB\L	1c#</] 1E</]	.	.
.	8C#\	.	.	.
.	8AA\	.	.	.
.	8BB\J	.	.	.
.	8GG\L	.	.	.
.	8AA\	.	.	.
.	8FF#\	.	.	.
.	8GG\J)	.	.	.
*v	*v	*	*	*
!!LO:LB:g=original
=61	=61	=61	=61
2r	4B</ 4F#</ 4D</	.	.
.	2.B</ 2.F#</ 2.D</	.	.
(8FF#\L	.	.	.
8GG\	.	.	.
8EE\	.	.	.
8FF#\J)	.	.	.
=62	=62	=62	=62
2r	4B</ 4F#</ 4D</	.	.
.	2.B</ 2.F#</ 2.D</	.	.
(8CC#\L	.	.	.
8DD\	.	.	.
8AAA#X\	.	.	.
8CC#\J)	.	.	.
=63	=63	=63	=63
1BBB/	1r	.	.
=64	=64	=64	=64
!	!LO:MO:mod=*clefG2:null	!	!
*	*null	*	*
*ped	*	*	*
1BBB/	1r	.	.
=65||	=65||	=65||	=65||
*k[f#c#g#d#a#]	*k[f#c#g#d#a#]	*	*
*^	*	*	*
!	!	!LO:TX:b:i:t=cantando	!	!
(4d#\ 4F#\	2r	[1ff#\	.	p
4B\	.	.	.	.
!LO:TX:i:b:t=m.d.	!	!	!	!
4d#\ 4F#\	[2BBB\	.	.	.
4B\	.	.	.	.
!!LO:LB:g=original
=66	=66	=66	=66	=66
4d#\ 4F#\	1BBB\]	4ff#\]	.	.
4B\	.	(8dd#\L	.	.
.	.	8ff#\J	.	.
*Xped	*	*	*	*
4e\ 4F#\	.	8ee\L	.	.
.	.	8g#\	.	.
4B\)	.	8f#\	.	.
.	.	8cc#\J)	.	.
=67	=67	=67	=67	=67
*ped	*	*	*	*
(4d#\ 4F#\	2r	[1b\	.	.
4B\	.	.	.	.
!LO:TX:i:b:t=m.d.	!	!	!	!
4e\ 4F#\	[2BBB\	.	.	.
4B\	.	.	.	.
=68	=68	=68	=68	=68
4d#\ 4F#\	1BBB\]	4b\]	.	.
4B\	.	(8b\L	.	.
.	.	8cc#\J	.	.
4d#\ 4F#\	.	8ee\L	.	.
.	.	8dd#\	.	.
4B\)	.	8cc#\	.	.
.	.	8b\J)	.	.
*v	*v	*	*	*
=69	=69	=69	=69
(4d#\ 4F#\	(2ff#'\	.	<
4B\	.	.	.
4d#\ 4F#\	2ff#'\	.	.
*Xped	*	*	*
4B\)	.	.	.
=70	=70	=70	=70
(4dn\ 4F#\	2gg#'\	.	.
4B\	.	.	.
4d\ 4F#\	2gg#'\)	.	[[
4B\)	.	.	.
!!LO:PB:g=original
=71	=71	=71	=71
!	!	!	!LO:MO:null:mod=.
.	16qqddn/LL	.	>
.	16qqee/JJ	.	.
!	!	!	!LO:MO:null:mod=>
!	!LO:SIC:s=4ddny\:v	!	!
(4e#X\ 4B\ 4F#\	4dd\	.	.
4dn\	8cc#\L	.	.
.	8b\J	.	.
*ped	*	*	*
!	!	!	!LO:MO:null:mod=.
4e#\ 4B\ 4F#\	[2gg#\	.	]
!	!	!	!LO:MO:null:mod=]
4d\	.	.	.
=72	=72	=72	=72
4e#X\ 4B\ 4F#\	4gg#\]	.	.
*Xped	*	*	*
4dn\	(8gg#\L	.	.
.	8aa#\J	.	.
4en\ 4A#\ 4F#\	8bb\L	.	.
.	8aa#\	.	.
4c#\)	8ccc#\	.	.
.	8gg#\J)	.	.
=73	=73	=73	=73
*^	*	*	*
(4d#\ 4F#\	2r	[1ff#\	.	.
4B\	.	.	.	.
*ped	*	*	*	*
4d#\ 4F#\	[2BBB\	.	.	.
4B\	.	.	.	.
=74	=74	=74	=74	=74
4d#\ 4F#\	1BBB\]	4ff#\]	.	.
4B\	.	(8dd#\L	.	.
.	.	8ff#\J	.	.
*Xped	*	*	*	*
4e\ 4F#\	.	8ee\L	.	.
.	.	8g#\	.	.
4B\)	.	8f#\	.	.
.	.	8cc#\J)	.	.
=75	=75	=75	=75	=75
*ped	*	*	*	*
(4d#\ 4F#\	2r	[1b\	.	.
4B\	.	.	.	.
4d#\ 4F#\	[2BBB\	.	.	.
4B\	.	.	.	.
!!LO:LB:g=original
=76	=76	=76	=76	=76
4d#\ 4F#\	1BBB\]	4b\]	.	.
4B\	.	(8b\L	.	.
.	.	8cc#\J	.	.
4d#\ 4F#\	.	8ee\L	.	.
.	.	8dd#\	.	.
4B\)	.	8cc#\	.	.
.	.	8b\J)	.	.
*v	*v	*	*	*
=77	=77	=77	=77
(4d#\ 4F#\	(2ff#'\	.	<
4B\	.	.	.
4d#\ 4F#\	2ff#'\	.	.
*Xped	*	*	*
4B\	.	.	.
=78	=78	=78	=78
4dn\ 4F#\	2gg#'\	.	.
4B\	.	.	.
4d\ 4F#\	2gg#'\)	.	[[
4B\)	.	.	.
=79	=79	=79	=79
!	!	!	!LO:MO:null:mod=.
.	(16qqg#/LL	.	>
.	16qqa#/JJ)	.	.
!	!	!	!LO:MO:null:mod=>
(4e\ 4F#\	(4g#/	.	.
4A#\	8a#\L	.	.
.	8cc#\J)	.	.
!	!	!	!LO:MO:null:mod=.
4d#X\ 4F#\	[2b\	.	]]
!	!	!	!LO:MO:null:mod=]
4B\	.	.	.
=80	=80	=80	=80
*^	*	*	*
*ped	*	*	*	*
4d#\ 4F#\	2r	1b\]	.	.
4B\	.	.	.	.
4d#\ 4F#\	[2BBB\	.	.	.
4B\)	.	.	.	.
!!LO:LB:g=original
!!LO:MO:ori
=81||	=81||	=81||	=81||	=81||
!!LO:MO:end
!!LO:MO:mod
!! =81	=81	=81	=81	=81
!!LO:MO:end
!	!	!LO:TX:b:i:t=sempre legato	!	!
(4e\ 4F#\	1BBB\]	(4ee\	.	mf
4B\	.	4dd#\	.	.
4e\ 4F#\	.	4cc#\	.	.
*Xped	*	*	*	*
4B\	.	4g#/	.	.
=82	=82	=82	=82	=82
4e\ 4F#\	2r	[1cc#\)	.	.
4B\	.	.	.	.
*ped	*	*	*	*
4e\ 4F#\	[2BBB\	.	.	.
4B\)	.	.	.	.
=83	=83	=83	=83	=83
(4e\ 4F#\	1BBB\]	4cc#\]	.	.
4B\	.	4gn/	.	.
4e\ 4F#\	.	[2cc#\	.	.
*Xped	*	*	*	*
4B\)	.	.	.	.
*v	*v	*	*	*
=84	=84	=84	=84
(4e\ 4F#\	4cc#\]	.	.
4A#\	(4f#/	.	.
4e\ 4F#\	4cc#\	.	.
4A#\)	4dd#\	.	.
=85	=85	=85	=85
(4d#\ 4F#\	(4cc#\)	.	<
4B\	4b\	.	.
4d#\ 4F#\	4ff#\	.	.
4B\)	4aa#\	.	[[
!!LO:LB:g=original
=86	=86	=86	=86
(4dn\ 4F#\	4gg#\	.	>
4B\	4b\	.	.
4d\ 4F#\	4g#/	.	.
4B\)	4a#/)	.	]]
=87	=87	=87	=87
(4c#\ 4G#\ 4F#\	4g#/	.	.
4B\	8a#/L	.	.
.	8b/J	.	.
4c#\ 4G#\ 4F#\	[2cc#\	.	.
4B\	.	.	.
=88	=88	=88	=88
*^	*	*	*
!LO:TX:i:b:t=m.d.	!	!	!	!
4c#\ 4G#\ 4F#\	1BBB\	2cc#\]	.	.
4B\	.	.	.	.
4e#X\ 4G#\ 4F#\	.	2cc#\	.	.
4B\)	.	.	.	.
*v	*v	*	*	*
=89	=89	=89	=89
(4en\ 4G#\ 4F#\	(4een\	.	.
4B\	4dd#\	.	.
4e\ 4G#\ 4F#\	4cc#\	.	.
4B\	4g#/)	.	.
=90	=90	=90	=90
*^	*	*	*
*ped	*	*	*	*
4e\ 4G#\ 4F#\	2r	[1cc#\	.	.
4B\	.	.	.	.
4e\ 4G#\ 4F#\	[2BBB\	.	.	.
4B\)	.	.	.	.
!!LO:LB:g=original
=91	=91	=91	=91	=91
(4e\ 4A#\ 4F#\	1BBB\]	4cc#\]	.	.
4B\	.	(4gn/	.	.
4e\ 4A#\ 4F#\	.	[2cc#\	.	<
*Xped	*	*	*	*
4B\)	.	.	.	.
*v	*v	*	*	*
=92	=92	=92	=92
(4e\ 4G##X\ 4F#\	4cc#\]	.	.
4A#\	4f#/	.	.
4e\ 4G##\ 4F#\	4cc#\	.	<
4A#\)	4dd#'\)	.	.
=93	=93	=93	=93
(4d#\ 4A#\ 4F#\	(4cc#\	.	.
4B\	4b\	.	.
4d#\ 4A#\ 4F#\	4ff#\	.	.
4B\)	4ddd#\	.	[[
=94	=94	=94	=94
(4e#X\ 4G#\ 4F#\	4ccc#\	.	f
4B\	4bb\	.	.
4e#\ 4G#\ 4F#\	4cc#\	.	.
4B\)	4bb\)	.	.
=95	=95	=95	=95
*^	*^	*	*
2f#/	4r	(4bb/	2dd#\	.	.
.	2F#\	4aa#/	.	.	.
2e#X/	.	4aan/	2ddn\	.	.
.	[>4F#\	4gg#/	.	.	.
!!LO:PB:g=original
=96	=96	=96	=96	=96	=96
2en/	4F#\]	4ggn/	2cc#\	.	>
.	2F#\	4ff#/	.	.	.
2d#X/	.	4ee#X/	2b#X\	.	.
!	!	!	!	!	!LO:MO:null:mod=]
.	4F#\	4ff#/)	.	.	.
*	*	*v	*v	*	*
=97	=97	=97	=97	=97
*ped	*	*	*	*
!	!	!	!	!LO:MO:mod=p
4d#\ 4F#\	2r	[1ff#\ [1bn\	.	] p
4An\	.	.	.	.
4d#\ 4F#\	[2BBB\	.	.	.
4A\	.	.	.	.
=98	=98	=98	=98	=98
4d#\ 4F#\	1BBB\]	4ff#\] 4b\]	.	.
4An\	.	(8dd#\L	.	.
.	.	8ff#\J	.	.
*Xped	*	*	*	*
4e\ 4F#\	.	8ee\L	.	.
.	.	8an\	.	.
4A\	.	8f#\	.	.
.	.	8cc#\J)	.	.
=99	=99	=99	=99	=99
*ped	*	*	*	*
4d#\ 4F#\	2r	[1b\	.	.
4An\	.	.	.	.
4d#\ 4F#\	[2BBB\	.	.	.
4A\	.	.	.	.
!!LO:LB:g=original
=100	=100	=100	=100	=100
4d#\ 4F#\	1BBB\]	4b\]	.	.
4An\	.	(8b\L	.	.
.	.	8cc#\J	.	.
4d#\ 4F#\	.	8ee\L	.	.
.	.	8dd#\	.	.
4A\	.	8cc#\	.	.
.	.	8b\J)	.	.
*v	*v	*	*	*
=101	=101	=101	=101
*	*^	*	*
4d#\ 4F#\	(2ff#'/	1b\	.	<
4An\	.	.	.	.
4d#\ 4F#\	2ff#'/	.	.	.
4A\	.	.	.	.
=102	=102	=102	=102	=102
*Xped	*	*	*	*
4e\ 4F#\	2aan'/	1cc#\	.	.
4An\	.	.	.	.
4e\ 4F#\	2aa'/)	.	.	.
4A\	.	.	.	[
*	*v	*v	*	*
=103	=103	=103	=103
.	(16qqff#/LL	.	.
.	16qqgg#/JJ)	.	.
(4d#\ 4F#\	(4ff#\ 4b\	.	.
4An\	8ee\L	.	.
.	8dd#\J)	.	.
*ped	*	*	*
4d#\ 4F#\	[2bb\ [2b\	.	.
4A\	.	.	.
!!LO:LB:g=original
=104	=104	=104	=104
*^	*	*	*
4d#\ 4F#\	2r	1bb\] 1b\]	.	.
*Xped	*	*	*	*
4An\	.	.	.	.
4d#\ 4F#\	[2BBB\	.	.	.
4A\)	.	.	.	.
=105	=105	=105	=105	=105
(4e\ 4G#\	1BBB\]	(2bb\ 2b'\	.	.
4B\	.	.	.	.
4e\ 4G#\	.	2bb\ 2b'\	.	.
4B\	.	.	.	.
*v	*v	*	*	*
=106	=106	=106	=106
4f#\ 4An\	2eee\ 2ee'\	.	.
4c#\	.	.	.
4f#\ 4A\	2eee\ 2ee'\)	.	.
4c#\)	.	.	.
=107	=107	=107	=107
.	16qqbb/LL	.	.
.	16qqccc#/JJ	.	.
(4e\ 4G#\	(4bb\	.	.
4B\	8aan\L	.	.
.	8gg#\J	.	.
*ped	*	*	*
4e\ 4G#\	[2bb\ [2b\)	.	.
4B\	.	.	.
=108	=108	=108	=108
*^	*	*	*
4e\ 4G#\	2r	1bb\] 1b\]	.	.
!LO:MO:mod=*Xped:null	!	!	!	!
*null	*	*	*	*
4B\	.	.	.	.
4e\ 4G#\	[2BBB\	.	.	.
4B\)	.	.	.	.
!!LO:LB:g=original
=109	=109	=109	=109	=109
(4f#\ 4A#X\	1BBB\]	(2fff#\ 2ff#'\	.	mf
4c#\	.	.	.	.
4f#\ 4A#\	.	2fff#\ 2ff#'\	.	.
4c#\	.	.	.	.
*v	*v	*	*	*
=110	=110	=110	=110
4g#\ 4B\	2bbb\ 2bb'\	.	.
4d#\	.	.	.
4g#\ 4B\	2bbb\ 2bb'\)	.	.
4d#\)	.	.	.
=111	=111	=111	=111
.	(<16qqfff#/LL	.	.
.	16qqggg#/JJ	.	.
(4f#\ 4A#\	(4fff#\)	.	.
4c#\	8eee\L	.	.
.	8ddd#\J	.	.
4f#\ 4A#\	[2fff#\ [2ff#\)	.	.
4c#\	.	.	.
=112	=112	=112	=112
*^	*	*	*
*ped	*	*	*	*
4f#\ 4A#\	1BBB\	2fff#\] 2ff#\]	.	.
4c#\	.	.	.	.
4f#\ 4A#\	.	2eee\ 2ee\	.	.
*Xped	*	*	*	*
4c#\)	.	.	.	.
*v	*v	*	*	*
!!LO:LB:g=original
=113	=113	=113	=113
.	(16qqddd#/LL	.	>
.	16qqeee/JJ	.	.
4e#X\ 4G#\	(4ddd#\)	.	.
4B\	8ccc#\L	.	.
.	8bb\J	.	.
4e#\ 4G#\	[2ddd#\ [2dd#\	.	]]
4B\	.	.	.
=114	=114	=114	=114
*^	*	*	*
*ped	*	*	*	*
4e#X\ 4G#\	1BBB\	2ddd#\] 2dd#\]	.	.
4B\	.	.	.	.
4en\ 4Gn\	.	2ccc#\ 2cc#\)	.	.
!LO:MO:mod=*Xped:null	!	!	!	!
*null	*	*	*	*
4B\	.	.	.	.
*v	*v	*	*	*
=115	=115	=115	=115
.	(<16qqgg#/LL	.	.
.	16qqaa#/JJ	.	.
4d#\ 4F#\	(4gg#\)	.	.
4B\	8ff#\L	.	.
.	8dd#\J	.	.
4d#\ 4F#\	[2bb\ [2b\	.	.
4B\	.	.	.
=116	=116	=116	=116
*^	*	*	*
*ped	*	*	*	*
4d#\ 4F#\	1BBB\	2bb\] 2b\]	.	.
4B\	.	.	.	.
4dn\ 4Fn\	.	[2ff#X\ [2f#X\)	.	.
!LO:MO:mod=*Xped:null	!	!	!	!
*null	*	*	*	*
4B\	.	.	.	.
*v	*v	*	*	*
!!LO:PB:g=original
=117	=117	=117	=117
4dn\ 4Fn\	2ff#\] 2f#\]	.	.
4B\	.	.	.
4c#\ 4E\	[2ff#\ [2f#\	.	>
4A#\	.	.	.
=118	=118	=118	=118
4c#\ 4E\	2ff#\] 2f#\]	.	.
4A#\	.	.	.
4B#X\ 4D#\	[2f#/	.	.
4An\	.	.	.
=119	=119	=119	=119
2B#X\ 2D#\	2f#/]	.	.
[2B#\ [2An\ [2D#\	[2f#/	.	.
=120	=120	=120	=120
2B#\] 2A\] 2D#\]	2f#/]	.	.
[2B#X\ [2G#\ [2D#\	[2g#/ [2f#/	.	.
=121	=121	=121	=121
2B#\] 2G#\] 2D#\]	2g#/] 2f#/]	.	.
[2B#X\ [2F#\ [2Dn\	[2an/ [2f#/	.	]
*kcancel	*	*	*
=122	=122	=122	=122
2B#\] 2F#\] 2D\]	2a/] 2f#/]	.	.
2c#\ 2F#\ 2C#;<\	2a#X/ 2e;/	.	.
!!LO:LB:g=original
=123||	=123||	=123||	=123||
*k[f#c#]	*k[f#c#]	*	*
4BB'/	4b/ 4f#/ 4d'/	.	p
4B'\	4b/ 4f#/ 4d'/	.	.
4BB'/	(8cc#/L 8g/ 8e/	.	.
.	8a/	.	.
4B'\	8f#/	.	.
.	8g/J	.	.
=124	=124	=124	=124
4BB'/	8e/L	.	.
.	8f#/	.	.
4B'\	8d/	.	.
.	8e/J)	.	.
4BB'/	4f#/ 4d'/	.	.
4B'\	4dd/ 4f#'/	.	.
=125	=125	=125	=125
4AA'/	4f#/ 4d'/	.	.
4A'\	4cc#/ 4f#'/	.	.
4GG'/	4f#/ 4d'/	.	.
4G'\	4b/ 4f#'/	.	.
=126	=126	=126	=126
4CC#'/	8g#X/L 8e#X/ 8B/	.	.
.	8a#X/	.	.
4C#'/	8f#/	.	.
.	8g#/J	.	.
4FF#'/	4a#/ 4f#/ 4c#'/	.	.
4F#'\	4f#/ 4c#/ 4A#X'/	.	.
!!LO:LB:g=original
=127	=127	=127	=127
4EE'/	4f#/ 4c#/ 4A#X'/	.	.
4E'\	4f#/ 4c#/ 4A#'/	.	.
4DD'/	(8f#/L 8B^>/	.	.
.	8b/	.	.
4D'\	8f#/	.	.
.	8an/J)	.	.
=128	=128	=128	=128
4CC#'/	8f#/L 8B^>/	.	.
.	8a/	.	.
4C#'/	8e/	.	.
.	8g/J	.	.
4D/ 4DD'/	8g/L 8B^/	.	.
.	8f#/	.	.
4G/ 4GG'/	8c#/ 8B/	.	.
.	8d/J	.	.
=129	=129	=129	=129
*	*^	*	*
4D/ 4DD'/	8f#/L 8B^>/	4ryyyy	.	.
.	8e/	.	.	.
4G/ 4GG'/	8d/	[4B\	.	.
.	[8c#/J	.	.	.
4E/ 4EE'/	(8c#/]L 8B/]	2ryy	.	<
.	8d/	.	.	.
4G/ 4GG'/	8c#/ 8B/	.	.	.
.	8d/J	.	.	.
*	*v	*v	*	*
=130	=130	=130	=130
4E#X/ 4EE#X/	8c#/L 8B/	.	.
.	8d/	.	.
4G#X/ 4GG#X/	8c#/ 8B/	.	.
.	8d/J	.	.
4F#/ 4FF#/	8c#/L 8A#X'/)	.	[
.	8f#/	.	p
4r	8g#X/	.	.
.	8a#X/J	.	.
!!LO:LB:g=original
=131	=131	=131	=131
4BB'/	4b/ 4f#/ 4d'/	.	.
4B'\	4b/ 4f#/ 4d'/	.	.
4AA'/	(8cc#/L 8g/ 8e/	.	.
.	8a/	.	.
4A'\	8f#/	.	.
.	8g/J	.	.
=132	=132	=132	=132
4GG'/	8e/L	.	.
.	8f#/	.	.
4G'\	8d/	.	.
.	8e/J)	.	.
4FF#'/	4a/ 4d'/	.	.
4F#'\	4dd/ 4a/ 4d'/	.	.
=133	=133	=133	=133
4GG'/	4cc#/ 4a/ 4d'/	.	.
4G'\	4b/ 4g/ 4d'/	.	.
4CC#'/	8a/L 8f#/ 8B/	.	.
.	8b/ 8g/	.	.
4C#'/	8a/ 8f#/	.	.
.	8g/J 8e/	.	.
=134	=134	=134	=134
4DD'/	8f#/L 8d/	4 2	<
.	8g/ 8e/	3 1	.
4d'\	8a/ 8f#/	4 2	.
.	8b/J 8g/	3 1	.
4A'\	8cc#\L 8a\	4 2	.
.	8dd\ 8b\	3 1	.
4F#'\	8ee\ 8cc#\	4 2	.
.	8ff#\J 8dd\	3 1	[[
!!LO:LB:g=original
=135	=135	=135	=135
4FF#'/	4aa\ 4dd\ 4a'\	.	.
4f#'\	4aa\ 4dd\ 4a'\	.	.
4d'\	(8cc#\L 8a\	.	.
.	8dd\	.	.
4A'\	8cc#\	.	.
.	8dd\J)	.	.
=136	=136	=136	=136
4GG/	4ff#\ 4b'\	.	.
4g'\	4ff#\ 4b'\	.	.
4e'\	(8cc#\L 8b\	.	.
.	8dd\	.	.
4B'\	8cc#\ 8b\	.	.
.	8dd\J)	.	.
=137	=137	=137	=137
4AA'/	(8ff#\L 8b\	.	.
.	8ee\	.	.
4g'\	8cc#\ 8b\	.	.
.	8dd\J	.	.
4e'\	8cc#\L 8b\	.	.
.	8dd\	.	.
4A'\	8b\ 8g\	.	.
.	8cc#\J)	.	.
=138	=138	=138	=138
8d'\	(8dd/L 8f#/	.	.
8r	8e/	.	.
4r	8d/	.	.
.	8A/J)	.	.
8DD'/	8r	.	.
8r	8d/L	.	.
4r	8a/ 8f#/	.	.
.	8b/J 8g/	.	.
!!LO:PB:g=original
!!LO:MO:ori
=139||	=139||	=139||	=139||
!!LO:MO:end
!!LO:MO:mod
!! =139	=139	=139	=139
!!LO:MO:end
4D/ 4DD/	4ccn\ 4a'\	.	.
4e\ 4G'\	4cc\ 4a\	.	.
2d\ 2F#\	(8cc\L 8a\	.	.
.	8dd\ 8b\	.	.
.	8cc\ 8a\	.	.
.	8dd\J 8b\	.	.
=140	=140	=140	=140
4D/ 4DD'/	8ee\L 8ccn\	.	.
.	8dd\ 8b\	.	.
4e\ 4G'\	8cc\ 8a\	.	.
.	8dd\J 8b\)	.	.
2d\ 2F#\	4ee\ 4cc'\	.	.
.	[4aa\ [4cc\ [4a^\	.	<
=141	=141	=141	=141
4D/ 4DD/	4aa\] 4cc\] 4a\]	.	.
(4d\ 4F#\	4cccn\ 4ee^\	.	.
4e\ 4G\	(8bb\L 8dd\	.	.
.	8ccc\J 8ee\	.	.
[4f#\ [4A\)	4aa\ 4ccn\)	.	[[
=142	=142	=142	=142
4f#\] 4A\]	(8aa\L 8ccn\	.	>
.	8bb\J 8dd\	.	.
(8g\L 8B\	2gg\ 2b\)	.	.
8d\J	.	.	.
8B\L	.	.	.
8G\	.	.	.
8D\	(8dd\L 8b\	.	.
!	!	!	!LO:MO:null:mod=]
8BB\J)	8ee\J 8cc\	.	]]
=143	=143	=143	=143
4GG/	4ffn\ 4dd'\)	.	.
4a\ 4cn'\	4ff\ 4dd'\	.	.
2g\ 2B\	(8ff\L 8dd\	.	.
.	8gg\ 8ee\	.	.
.	8ff\ 8dd\	.	.
.	8gg\J 8ee\	.	.
!!LO:LB:g=original
=144	=144	=144	=144
4GG/	8aa\L 8ffn\	.	.
.	8gg\ 8ee\	.	.
4a\ 4cn'\	8ff\ 8dd\	.	.
.	8gg\J 8ee\)	.	.
2g\ 2B\	4aa\ 4ff'\	.	<
.	[4ddd\ [4ff\ [4dd^\	.	.
=145	=145	=145	=145
4GG/	4ddd\] 4ff\] 4dd\]	.	.
*clefG2	*	*	*
(4g/ 4B/	4fffn\ 4aa\	.	.
4a/ 4cn/	(8eee\L 8gg\	.	.
.	8fff\J 8aa\	.	.
!	!	!	!LO:MO:null:mod=[[
[4b/ [4d/)	4ddd\ 4ffn\)	.	[ >
=146	=146	=146	=146
*^	*	*	*
!	!	!	!	!LO:MO:null:mod=>
4b/] 4d/]	4ryyyy	(8ddd\L 8ffn\	.	.
.	.	8eee\J 8gg\	.	.
(4ccn/ 4e/	8e\L	2cccn\ 2ee\)	.	.
.	8g\J	.	.	.
*clefF4	*	*	*	*
8e\L	2ryy	.	.	.
8cn\	.	.	.	.
!	!	!	!	!LO:MO:null:mod=.
8G\	.	4r	.	]
!	!	!	!	!LO:MO:null:mod=]
8E\J)	.	.	.	.
*v	*v	*	*	*
=147	=147	=147	=147
4BB-X/ 4BBB-X'/	4cn/ 4E'/	.	p
4AA/ 4AAA'/	4c/ 4E'/	.	.
4GG/ 4GGG'/	(8c/L 8E/	.	.
.	8d/ 8G/	.	.
4AA/ 4AAA'/	8e/ 8cn/	.	.
.	8fn/J 8d/	.	.
=148	=148	=148	=148
4BB-X/ 4BBB-X'/	8g/L 8e/	.	.
.	8fn/ 8d/	.	.
4AA/ 4AAA'/	8e/ 8cn/	.	.
.	8f/J 8d/	.	.
4GG/ 4GGG'/	4g/ 4e'/)	.	.
4AA/ 4AAA'/	4ccn/ 4e/ 4c'/	.	.
!!LO:LB:g=original
=149	=149	=149	=149
4BB-X/ 4BBB-X'/	4ccn/ 4e'/	.	<
4AA/ 4AAA'/	4cc/ 4e'/	.	.
!	!	!	!LO:MO:null:mod=.
4GG/ 4GGG'/	(8cc\L 8e\	.	<
.	8dd\ 8g\	.	.
4AA/ 4AAA'/	8ee\ 8cc\	.	.
.	8ffn\J 8dd\	.	.
=150	=150	=150	=150
4BB-X/ 4BBB-X'/	8gg\L 8ee\	.	.
.	8ffn\ 8dd\	.	.
4AA/ 4AAA'/	8ee\ 8ccn\	.	.
.	8ff\J 8dd\)	.	.
4GG/ 4GGG'/	4gg\ 4ee'\	.	.
4AA/ 4AAA'/	4cccn\ 4ee\ 4cc'\	.	[[
=151	=151	=151	=151
4FFn/ 4FFFn/	4fffn\ 4aa\ 4ffn\	.	f
4cn\ 4A\ 4Fn\	4ccn/ 4a/ 4fn/	.	.
(8d\L 8B-X\ 8F^\	(8dd\L 8b-X\ 8f^\	.	.
8e\	8ee\	.	.
8c\	8cc\	.	.
8d\J	8dd\J	.	.
=152	=152	=152	=152
8B-X\L	8b-X\L	.	.
8cn\	8ccn\	.	.
8A\	8a\	.	.
8B-\J)	8b-\J)	.	.
4G'\	4g/	.	.
4B-\ 4BB-X\	4cc/ 4g/ 4e'/	.	.
=153	=153	=153	=153
4A\ 4AA^\	(4ccn/ 4fn/ 4d^/	.	>
4G/ 4GG/	8b-X/L	.	.
.	8a/J	.	.
4Fn/ 4FFn'/	4b-/ 4g/ 4d/)	.	.
4E/ 4EE'/	4ccn/ 4g/ 4cn'/	.	.
!!LO:LB:g=original
=154	=154	=154	=154
4D/ 4DD'/	(8a/L 8fn/ 8cn/	.	.
.	8g/	.	.
4Cn/ 4CCn'/	8e/	.	.
.	8f/J)	.	.
4BBn/ 4BBBn'/	4d'/	.	.
!	!	!	!LO:MO:null:mod=]
4GG/ 4GGG'/	4g/ 4d/ 4Bn'/	.	]]
=155	=155	=155	=155
4CCn'/	4g/ 4e/ 4cn'/	.	p
4Cn'/	4g/ 4e/ 4c/	.	.
4AAA'/	(8a/L 8e/ 8c^>/	.	.
.	8fn/	.	.
4AA'/	8d/	.	.
.	8e/J)	.	.
=156	=156	=156	=156
4DD'/	(8fn/L 8d/ 8A^>/	.	.
.	8e/	.	.
4D'/	8cn/	.	.
.	8d/J)	.	.
4GGG'/	4B-X'/	.	.
4GG'/	4g/ 4d/ 4B-'/	.	.
=157	=157	=157	=157
4Cn/	(8ee\L 8ccn\ 8g^>\	.	.
.	8dd\	.	.
4cn\	8b-X\	.	.
.	8cc\J)	.	.
4FFn/	4a/	.	.
4Fn\	4ffn\ 4cc\ 4a'\	.	.
=158	=158	=158	=158
4B-X\	(8ddd\L 8bb-X\ 8ffn^\	.	pp
.	8cccn\	.	.
4b-X\	8aa\	.	.
.	8bb-\J)	.	.
4E-X\	4gg'\	.	.
4e-X\	4eee-X\ 4bb-\ 4gg'\	.	.
!!LO:LB:g=original
=159	=159	=159	=159
4AA'/	(8cc#X/L 8a/ 8e/	.	.
.	8b-X/	.	.
4A'\	8g/	.	.
.	8a/J)	.	.
4DD'/	4fn'/	.	.
4D'/	4dd/ 4a/ 4f'/	.	.
=160	=160	=160	=160
4A'\	(8ccc#X\L 8aa\ 8ee\	.	.
.	8bb-X\	.	.
4a'\	8gg\	.	.
.	8aa\J)	.	.
4D'\	4ffn'\	.	.
4d'\	4ddd\ 4aa\ 4ff'\	.	.
=161	=161	=161	=161
(8A\L	4cc#X/ 4a/ 4e/	.	<
8B-X\	.	.	.
8G\	4r	.	.
!	!	!	!LO:MO:null:mod=[
8A\J	.	.	.
!	!	!	!LO:MO:null:mod=>
8Fn\L	(8dd/L 8a^>/	.	[ >
8G\	8b-X/	.	.
8E\	8g/	.	.
8F\J	8a/J	.	.
=162	=162	=162	=162
8D\L	8fn/L	.	.
8E\	8g/	.	.
8Cn\	8e/	.	.
8D\J	8f/J	.	]
8BB-X/L	8d/L	.	.
8C/	8e/	.	.
8AA/	8cn/	.	.
8BB-/J)	8d/J)	.	.
=163	=163	=163	=163
4r	(8cn/L	.	<
.	8d/	.	.
4A/: 4Cn/: 4FFn:/	8fn/	.	.
.	8ffn/J 8ccn/	.	.
4r	8dd/L	.	.
.	8b-X/	.	.
4B-X\ 4D\ 4BB-X\	8f/	.	.
.	8d/J)	.	.
!!LO:PB:g=original
=164	=164	=164	=164
4r	(8cn/L	.	.
.	8d/	.	.
4A/: 4Cn/: 4FFn:/	8fn/	.	.
.	8ffn/J 8ccn/	.	.
4r	8dd/L	.	.
.	8b-X/	.	.
4B-X\ 4D\ 4BB-X\	8f/	.	.
.	8d/J)	.	.
=165	=165	=165	=165
4r	(8cn/L	.	.
.	8d/	.	.
4A/: 4Cn/: 4FFn:/	8e/	.	.
.	8ee/J 8a/	.	.
4r	8dd/L	.	.
.	8b-X/	.	.
4B-X\ 4D\ 4BB-X\	8fn/	.	.
.	8d/J)	.	.
=166	=166	=166	=166
4r	(8cn/L	.	.
.	8d/	.	.
4A/: 4Cn/: 4FFn:/	8e/	.	.
.	8ee/J 8a/	.	.
4r	8dd/L	.	.
.	8b-X/	.	.
4B-X\ 4D\ 4BB-X\	8fn/	.	.
.	8d/J)	.	[[
=167	=167	=167	=167
4r	(8c#X/L	.	>
.	8d/	.	.
4B-X\: 4C#X\: 4FFn:\	8e/	.	.
.	8ee/J 8b-X/	.	.
4r	8dd/L	.	.
.	8b-/	.	.
4B-\ 4D\ 4BB-X\	8fn/	.	.
.	8d/J)	.	.
!!LO:LB:g=original
=168	=168	=168	=168
4r	(8c#X/L	.	.
.	8d/	.	.
4B-X\: 4C#X\: 4FFn:\	8e/	.	.
.	8ee/J 8b-X/	.	.
4r	8dd/L	.	.
.	8b-/	.	.
4B-\ 4D\ 4BB-X\	8fn/	.	.
.	8d/J)	.	.
=169	=169	=169	=169
4r	(8c#X/L	.	.
.	8d/	.	.
4B-X\ 4C#X\ 4FFn\	8e/	.	.
.	8ee/J 8b-X/	.	.
2r	8dd/L	.	.
.	8b-/	.	.
.	8fn/	.	.
.	8d/J)	.	.
=170	=170	=170	=170
4r	(8c#X/L	.	.
.	8d/	.	.
4A#X/ 4C#X/ 4FF#X/	8e/	.	.
.	8ee/J 8a#X/	.	.
2r	8dd/L	.	.
.	8cc#/	.	.
.	8a#/	.	.
!	!	!	!LO:MO:null:mod=]
.	8e/J)	.	]]
=171	=171	=171	=171
4BB'/	4b/ 4f#/ 4d'/	.	.
4B'\	4b/ 4f#/ 4d'/	.	.
4BB'/	(8cc#/L 8g/ 8e/	.	.
.	8an/	.	.
4B'\	8f#/	.	.
.	8g/J	.	.
=172	=172	=172	=172
4BB'/	8e/L	.	.
.	8f#/	.	.
4B'\	8d/	.	.
.	8e/J)	.	.
4BB'/	4f#/ 4d'/	.	.
4B'\	4dd/ 4f#'/	.	.
!!LO:LB:g=original
=173	=173	=173	=173
4AA'/	4f#/ 4d'/	.	.
4A'\	4cc#/ 4f#'/	.	.
4GG'/	4f#/ 4d'/	.	.
4G'\	4b/ 4f#'/	.	.
=174	=174	=174	=174
4CC#'/	(8g#X/L 8e#X/ 8B/	.	.
.	8a#X/	.	.
4C#'/	8f#/	.	.
.	8g#/J)	.	.
4FF#'/	4a#/ 4f#/ 4c#/	.	.
4F#'\	4f#/ 4c#/ 4A#X/	.	.
=175	=175	=175	=175
4EE'/	4f#/ 4c#/ 4A#X'/	.	.
4E'\	4f#/ 4c#/ 4A#'/	.	.
4DD'/	(8f#/L 8B^>/	.	.
.	8b/	.	.
4D'/	8f#/	.	.
.	8an/J)	.	.
=176	=176	=176	=176
4CC#'/	(8f#/L 8B^>/	.	.
.	8a/	.	.
4C#'/	8e/	.	.
.	8g/J)	.	.
4BBB'/	(8d/L 8G/	.	>
.	8g/	.	.
4BB'/	8d/	.	.
.	8f#/J)	.	.
=177	=177	=177	=177
4AAA#X'/	8c#/L 8G/	.	.
.	8f#/	.	.
4AA#X'/	8c#/	.	.
.	8e/J	.	.
4AAAn'/	8B/L 8F#/	.	.
.	8e/	.	.
4AAn'/	8B/	.	.
.	8d/J	.	.
!!LO:LB:g=original
=178	=178	=178	=178
!	!LO:MO:mod=*clefF4:null	!	!
*	*null	*	*
4GGG#X'\	8B</L 8Fn</	.	.
.	8e</	.	.
4GG#X'\	8B</	.	.
.	8d</J	.	.
4GGn\ 4GGGn'\	8A#<X/L 8E</	.	.
.	8d</	.	.
4FF#\ 4FFF#'\	8A#</	.	.
!	!	!	!LO:MO:null:mod=]
.	8c#</J	.	]]
=179	=179	=179	=179
*^	*	*	*
4BB\	4BBB\	4B</ 4F#</ 4D<'/	.	pp
4r	4ryy	4B</ 4F#</ 4D<'/	.	.
8G\L	2rBB	[2c#</ [2E<^/	.	.
8A\	.	.	.	.
8F#\	.	.	.	.
[8G\J	.	.	.	.
=180	=180	=180	=180	=180
1G/] 1E/	(8BB\L	1c#</] 1E</]	.	.
.	8C#\	.	.	.
.	8AA\	.	.	.
.	8BB\J	.	.	.
.	8GG\L	.	.	.
.	8AA\	.	.	.
.	8FF#\	.	.	.
.	8GG\J)	.	.	.
=181	=181	=181	=181	=181
2ryy	1r	4B</ 4F#</ 4D<'/	.	.
.	.	4B</ 4F#</ 4D<'/	.	.
8G\L	.	[2c#</ [2E<^/	.	.
8A\	.	.	.	.
8F#\	.	.	.	.
[8G\J	.	.	.	.
!!LO:LB:g=original
=182	=182	=182	=182	=182
1G/]	(8BB\L	1c#</] 1E</]	.	.
.	8C#\	.	.	.
.	8AA\	.	.	.
.	8BB\J	.	.	.
.	8GG\L	.	.	.
.	8AA\	.	.	.
.	8FF#\	.	.	.
.	8GG\J)	.	.	.
*v	*v	*	*	*
=183	=183	=183	=183
2r	4B</ 4F#</ 4D</	.	.
.	2.B</ 2.F#</ 2.D</	.	.
(8FF#\L	.	.	.
8GG\	.	.	.
8EE\	.	.	.
8FF#\J)	.	.	.
=184	=184	=184	=184
2r	4B/ 4F#/ 4D/	.	.
.	2.B/ 2.F#/ 2.D/	.	.
(8CC#\L	.	.	.
8DD\	.	.	.
8AAA#X\	.	.	.
8CC#\J)	.	.	.
=185	=185	=185	=185
1BBB/	1r	.	.
=186	=186	=186	=186
1BBB/	1r	.	.
!	!LO:MO:mod=*clefG2:null	!	!
*	*null	*	*
=187	=187	=187	=187
4d\ 4F#\ 4BB'\	4bb\ 4ff#\ 4dd\ 4b'\	.	f
4r	4r	.	.
2r	2r	.	.
==	==	==	==
*-	*-	*-	*-
!!!system-decoration: {(s1,s2)}
!!!RDF**kern: > = above
!!!RDF**kern: < = below
!!!filter-modern: tie -s | humtr -p | sic -sq | shed -e "s/LO:DY:(a|b|rj)/LO:dy:$1/L" | modori -m | autostem -r | shed -e "s/yy//" | shed -k -e "s/[<>]//g"
!!!ENC: Filip Voros
!!!END: 2022-01-30
!!!ENC: Leszek Kubiak
!!!END: 2022-02-08
!!!EED-modern: Antoni Szymański
!!!END-modern: 2022-09-27
!!!YEC: Copyright 2022 Narodowy Instytut Fryderyka Chopina (https://polishscores.org)
!!!YEM: License CC-BY-4.0 (https://creativecommons.org/licenses/by/4.0)
